src/main/resources/icons/DatabaseIcons/icons/driverRed1.svg

<svg xmlns="http://www.w3.org/2000/svg" width="16" height="16" viewBox="0 0 16 16"><rect id="frame" width="16" height="16" fill="none"/><g fill="#F26522" fill-opacity=".7" fill-rule="evenodd"><path d="M7 4h2v4H7z"/><path d="M1 13h2v2H1z"/><path d="M13 13h2v2h-2z"/><path d="M7 13h2v2H7z"/><path d="M5 8h2v3H5z"/><path d="M9 8h2v3H9z"/><path d="M3 11h2v4H3z"/><path d="M11 11h2v4h-2z"/><path d="M9 4h2v2H9z"/><path d="M5 4h2v2H5z"/><path d="M3 4v4H1V1h4v3H3zm12-2v6h-2V4h-2V1h4v1z"/></g></svg>

<svg xmlns="http://www.w3.org/2000/svg" width="16" height="16" viewBox="0 0 16 16">
  <g fill="none" fill-opacity=".7" fill-rule="evenodd">
    <rect width="2" height="4" x="7" y="4" fill="#F26522"/>
    <rect width="2" height="2" x="1" y="13" fill="#F26522"/>
    <rect width="2" height="2" x="13" y="13" fill="#F26522"/>
    <rect width="2" height="2" x="7" y="13" fill="#F26522"/>
    <rect width="2" height="3" x="5" y="8" fill="#F26522"/>
    <rect width="2" height="3" x="9" y="8" fill="#F26522"/>
    <rect width="2" height="4" x="3" y="11" fill="#F26522"/>
    <rect width="2" height="4" x="11" y="11" fill="#F26522"/>
    <rect width="2" height="2" x="9" y="4" fill="#F26522"/>
    <rect width="2" height="2" x="5" y="4" fill="#F26522"/>
    <path fill="#F26522" d="M3 4L3 8 1 8 1 3 1 1 5 1 5 4 3 4zM15 2L15 8 13 8 13 4 11 4 11 1 15 1 15 2z"/>
  </g>
</svg>
